apps/ui-icons/svgs/export.svg

<svg viewBox="0 0 24 24" width="24" height="24"  fill="none" xmlns="http://www.w3.org/2000/svg">
<path d="M11 5.41421V15H13V5.41421L14.2929 6.70711C14.6834 7.09763 15.3166 7.09763 15.7071 6.70711C16.0976 6.31658 16.0976 5.68342 15.7071 5.29289L12.7071 2.29289C12.3166 1.90237 11.6834 1.90237 11.2929 2.29289L8.29289 5.29289C7.90237 5.68342 7.90237 6.31658 8.29289 6.70711C8.68342 7.09763 9.31658 7.09763 9.70711 6.70711L11 5.41421Z" fill="#171D26"/>
<path d="M5 8C3.34315 8 2 9.34315 2 11V18C2 19.6569 3.34315 21 5 21H19C20.6569 21 22 19.6569 22 18V11C22 9.34315 20.6569 8 19 8H17C16.4477 8 16 8.44772 16 9C16 9.55228 16.4477 10 17 10H19C19.5523 10 20 10.4477 20 11V18C20 18.5523 19.5523 19 19 19H5C4.44772 19 4 18.5523 4 18V11C4 10.4477 4.44772 10 5 10H7C7.55228 10 8 9.55228 8 9C8 8.44772 7.55228 8 7 8H5Z" fill="#171D26"/>
</svg>

<svg xmlns="http://www.w3.org/2000/svg" width="24" height="24" fill="none" viewBox="0 0 24 24">
  <path fill="#171D26" d="M11 5.414V15h2V5.414l1.293 1.293a1 1 0 1 0 1.414-1.414l-3-3a1 1 0 0 0-1.414 0l-3 3a1 1 0 0 0 1.414 1.414L11 5.414Z"/>
  <path fill="#171D26" d="M5 8a3 3 0 0 0-3 3v7a3 3 0 0 0 3 3h14a3 3 0 0 0 3-3v-7a3 3 0 0 0-3-3h-2a1 1 0 1 0 0 2h2a1 1 0 0 1 1 1v7a1 1 0 0 1-1 1H5a1 1 0 0 1-1-1v-7a1 1 0 0 1 1-1h2a1 1 0 0 0 0-2H5Z"/>
</svg>
